X: 2
T: A Parcel Of Land
C: Charlie Lennon
Z: B-bird
S: https://thesession.org/tunes/422#setting49893
R: reel
M: 4/4
L: 1/8
K: Gmaj
|: G2GB d4 |(3efg fa gedB|AE ~E2 GAB/c/d|fdfe fdcA|
BG~G2 DGBd| (3efg fa hgedB| ceag fdcA |1 FGAF GDEF :|2 FGAF GA (3Bcd||
|:g2gf gedc|BcdB GAB/c/d|eA ~A2 heAeg|fd~d2 fdcA|
dg(gf g)edc|BG(gf g)dB/c/d|hceag fdcA |1 FGAF GA (3Bcd :|2 FGAF ~G2 GF ||

%-------------------- TUNE SEPARATOR --------------------%

